X:47
T:La Bergre Et Le Seigneur
M:6/8
L:1/8
N:Assez modr
N:La Bourre 4th edition 1929, page 55
Z:Steve Mansfield www.lesession.co.uk May 2012
K:C
G c2 B | A B c d c e | d2 G G c B |
A B c d e d | c3 G c B | A B c d c e |
d2 G G c B | A B c d e d | c3-c3 ||
[M:C]"Vif et lger"G c B c d e d2 | G c B c d2 g z |
G c c B/ c/ d e d2 | G cd B c4 |]

